X: 221
U:~=!turn!
M:C
L:1/8
K:D
df(ed) dc(BA) | Aceg Tfedc | {/c}d2 d2 d2 :: (cd) | eA A/A/A fA A/A/A | gA A/A/A fA A/A/A |
eAfA gAfA | ed(cB) AG(FE) | DAFA DAFA | {/c}dfed (dc)(BA) | Aceg Tfedc {/c}d2 d2 d2 :|


